svg/ionicons/arrow-down-left-box-sharp.svg

<svg xmlns="http://www.w3.org/2000/svg" width="512" height="512" viewBox="0 0 512 512"><path fill-rule="evenodd" d="M32 480V315.636h32v109.737l43.636-43.637v22.628h22.628L86.627 448h109.737v32zm286.628-264L130.264 404.364H480V32H107.636v349.736L296 193.373z" clip-rule="evenodd"/></svg>

<svg width="512" height="512" viewBox="0 0 512 512" xmlns="http://www.w3.org/2000/svg">
<path fill-rule="evenodd" clip-rule="evenodd" d="M32 480L32 315.636L64 315.636L64 425.373L107.636 381.736L107.636 404.364L130.264 404.364L86.6275 448L196.364 448L196.364 480L32 480ZM318.628 216L130.264 404.364L480 404.364L480 32L107.636 31.9999L107.636 381.736L296 193.373L318.628 216Z" />
</svg>
